svg/furkot/freepik/minimarket.svg

<svg viewBox="0 0 512 512" xmlns="http://www.w3.org/2000/svg"><path d="m416.91 159.537v-57.889c0-37.234-29.707-67.54-66.942-67.54h-182.5c-37.235 0-67.552 30.295-67.552 67.54v57.878h-70.525c-16.232 0-29.391 13.16-29.391 29.391v63.891c0 16.243 13.159 29.391 29.391 29.391h8.758l32.115 176.422c2.538 13.966 14.717 24.119 28.911 24.119h319.096c14.206 0 26.363-10.153 28.912-24.13l32.093-176.411h8.17c16.231 0 29.391-13.148 29.391-29.391v-63.891c0-16.231-13.16-29.391-29.391-29.391zm-262.547-57.889c0-7.102 6.002-13.094 13.105-13.094h182.533c7.092 0 12.484 5.992 12.484 13.094v57.878h-208.122zm40.655 276.055c0 11.297-9.031 20.448-20.328 20.448-11.286 0-20.327-9.151-20.327-20.448v-112.247c0-11.297 9.041-20.437 20.327-20.437 11.308 0 20.328 9.162 20.328 20.437zm84.076 0c0 11.297-9.041 20.448-20.327 20.448s-20.338-9.151-20.338-20.448v-112.247c0-11.297 9.052-20.437 20.338-20.437 11.297 0 20.327 9.162 20.327 20.437zm84.077 0c0 11.297-9.041 20.448-20.316 20.448-11.297 0-20.339-9.151-20.339-20.448v-112.247c0-11.297 9.042-20.437 20.339-20.437 11.275 0 20.316 9.162 20.316 20.437z"/></svg>

<svg xmlns="http://www.w3.org/2000/svg" viewBox="0 0 512 512"><path d="M416.91 159.537V101.648C416.91 64.414 387.203 34.108 349.968 34.108H167.468C130.233 34.108 99.916 64.403 99.916 101.648V159.526H29.391C13.159 159.526 0 172.686 0 188.917V252.808C0 269.051 13.159 282.199 29.391 282.199H38.149L70.264 458.621C72.802 472.587 84.981 482.74 99.175 482.74H418.271C432.477 482.74 444.634 472.587 447.183 458.61L479.276 282.199H487.446C503.677 282.199 516.837 269.051 516.837 252.808V188.917C516.837 172.686 503.677 159.526 487.446 159.526L416.91 159.537 416.91 159.537ZM154.363 101.648C154.363 94.546 160.365 88.554 167.468 88.554H350.001C357.093 88.554 362.485 94.546 362.485 101.648V159.526H154.363V101.648ZM195.018 377.703C195.018 389 185.987 398.151 174.69 398.151 163.404 398.151 154.363 389 154.363 377.703V265.456C154.363 254.159 163.404 245.019 174.69 245.019 185.998 245.019 195.018 254.181 195.018 265.456V377.703ZM279.094 377.703C279.094 389 270.053 398.151 258.767 398.151 247.481 398.151 238.429 389 238.429 377.703V265.456C238.429 254.159 247.481 245.019 258.767 245.019 270.064 245.019 279.094 254.181 279.094 265.456V377.703ZM363.171 377.703C363.171 389 354.13 398.151 342.855 398.151 331.558 398.151 322.516 389 322.516 377.703V265.456C322.516 254.159 331.558 245.019 342.855 245.019 354.13 245.019 363.171 254.181 363.171 265.456V377.703Z"/></svg>
